!!!SOCIAL_FUNCTION:	war songs
!!!PDT:	1943
!!!OTL: No_33_The_Rider_on_the_Kohaks.krn
!!!REG: British Columbia
**kern
*staff1
=1-
*clefF4
*k[b-e-a-]
*M2/4
4r
8.r
16c\
=2!|:
8.c\L
16B-\Jk
32c\LLK
16.B-\JJ
16r
32B-\LLL
32G\JJJ
=3
16B-\LK
[8.G\J
8G\L]
16E-\Jk
16r
=4
8c\L
8c\J
32c\LLK
16.B-\JJ
16r
32B-\LLL
32G\JJJ
=5
16B-\LK
8.G\J
16G\LK
8G\J
16r
=6||
*M3/4
8.B-\L
16c\Jk
8.B-\L
16c\Jk
8B-\L
16B-\L
16G\JJ
=7
16B-\LK
[8.G\J
16G\LK]
8E-\J
16r
8B-\L
8G\J
=8||
*M2/4
8.B-\L
16c\Jk
12B-\L
12G\
12G\J
=9
4G\
8.r
16c\
=10:|!
4G\
4r
==
*-
